( PCB Contour )
( Generated by Rapid-PCB.com )
( Material Size)
( X= 50.000, Y= 50.000, Z= 1.550)
()
G00
G17
G21
G40
G49
G54
G80
G90
G94
G00 F3000 Z3.000
M03 S9000
G00 F3000 X23.015 Y33.418
G00 F1500 Z0
G01 F600 Z-0.200
G01 F600 X22.775 Y33.367
G01 F600 X22.550 Y33.267
G01 F600 X22.356 Y33.125
G01 F600 X21.415 Y32.185
G01 F600 X21.260 Y32.013
G01 F600 X21.137 Y31.800
G01 F600 X21.062 Y31.567
G01 F600 X21.037 Y31.332
G01 F600 X21.037 Y24.194
G01 F600 X14.261 Y17.418
G01 F600 X11.802 Y17.418
G01 F600 X11.671 Y17.645
G01 F600 X11.338 Y18.014
G01 F600 X10.937 Y18.306
G01 F600 X10.484 Y18.508
G01 F600 X9.998 Y18.611
G01 F600 X9.502 Y18.611
G01 F600 X9.016 Y18.508
G01 F600 X8.563 Y18.306
G01 F600 X8.162 Y18.014
G01 F600 X7.829 Y17.645
G01 F600 X7.581 Y17.216
G01 F600 X7.428 Y16.744
G01 F600 X7.376 Y16.250
G01 F600 X7.428 Y15.756
G01 F600 X7.581 Y15.284
G01 F600 X7.829 Y14.855
G01 F600 X8.162 Y14.486
G01 F600 X8.563 Y14.194
G01 F600 X9.016 Y13.992
G01 F600 X9.502 Y13.889
G01 F600 X9.998 Y13.889
G01 F600 X10.484 Y13.992
G01 F600 X10.937 Y14.194
G01 F600 X11.338 Y14.486
G01 F600 X11.671 Y14.855
G01 F600 X11.802 Y15.083
G01 F600 X14.873 Y15.083
G01 F600 X15.113 Y15.134
G01 F600 X15.337 Y15.233
G01 F600 X15.532 Y15.375
G01 F600 X23.005 Y22.848
G01 F600 X23.160 Y23.020
G01 F600 X23.283 Y23.233
G01 F600 X23.358 Y23.466
G01 F600 X23.383 Y23.701
G01 F600 X23.383 Y30.839
G01 F600 X23.627 Y31.083
G01 F600 X26.161 Y31.083
G01 F600 X27.618 Y29.625
G01 F600 X27.813 Y29.483
G01 F600 X28.037 Y29.384
G01 F600 X28.277 Y29.333
G01 F600 X30.227 Y29.333
G01 F600 X30.227 Y28.727
G01 F600 X33.773 Y28.727
G01 F600 X33.773 Y32.273
G01 F600 X30.227 Y32.273
G01 F600 X30.227 Y31.668
G01 F600 X28.890 Y31.668
G01 F600 X27.432 Y33.125
G01 F600 X27.237 Y33.267
G01 F600 X27.013 Y33.367
G01 F600 X26.773 Y33.418
G01 F600 X23.015 Y33.418
G00 F3000 Z3.000
G00 F3000 X9.502 Y32.111
G00 F1500 Z0
G01 F600 Z-0.200
G01 F600 X9.016 Y32.008
G01 F600 X8.563 Y31.806
G01 F600 X8.162 Y31.514
G01 F600 X7.829 Y31.145
G01 F600 X7.581 Y30.716
G01 F600 X7.428 Y30.244
G01 F600 X7.376 Y29.750
G01 F600 X7.428 Y29.256
G01 F600 X7.581 Y28.784
G01 F600 X7.829 Y28.355
G01 F600 X8.162 Y27.986
G01 F600 X8.563 Y27.694
G01 F600 X9.016 Y27.492
G01 F600 X9.502 Y27.389
G01 F600 X9.998 Y27.389
G01 F600 X10.484 Y27.492
G01 F600 X10.911 Y27.682
G01 F600 X16.218 Y22.375
G01 F600 X16.413 Y22.233
G01 F600 X16.637 Y22.134
G01 F600 X16.877 Y22.082
G01 F600 X17.123 Y22.082
G01 F600 X17.363 Y22.134
G01 F600 X17.587 Y22.233
G01 F600 X17.786 Y22.378
G01 F600 X17.950 Y22.560
G01 F600 X18.073 Y22.773
G01 F600 X18.148 Y23.006
G01 F600 X18.174 Y23.250
G01 F600 X18.148 Y23.494
G01 F600 X18.073 Y23.728
G01 F600 X17.950 Y23.940
G01 F600 X17.795 Y24.112
G01 F600 X13.325 Y28.583
G01 F600 X19.571 Y28.582
G01 F600 X19.793 Y28.583
G01 F600 X20.033 Y28.634
G01 F600 X20.257 Y28.733
G01 F600 X20.456 Y28.878
G01 F600 X20.620 Y29.060
G01 F600 X20.742 Y29.273
G01 F600 X20.818 Y29.506
G01 F600 X20.844 Y29.750
G01 F600 X20.818 Y29.994
G01 F600 X20.742 Y30.228
G01 F600 X20.620 Y30.440
G01 F600 X20.456 Y30.622
G01 F600 X20.257 Y30.767
G01 F600 X20.033 Y30.867
G01 F600 X19.787 Y30.918
G01 F600 X19.569 Y30.918
G01 F600 X11.802 Y30.918
G01 F600 X11.671 Y31.145
G01 F600 X11.338 Y31.514
G01 F600 X10.937 Y31.806
G01 F600 X10.484 Y32.008
G01 F600 X9.998 Y32.111
G01 F600 X9.502 Y32.111
G00 F3000 Z3.000
G00 F3000 X38.752 Y32.111
G00 F1500 Z0
G01 F600 Z-0.200
G01 F600 X38.266 Y32.008
G01 F600 X37.813 Y31.806
G01 F600 X37.412 Y31.514
G01 F600 X37.079 Y31.145
G01 F600 X36.831 Y30.716
G01 F600 X36.678 Y30.244
G01 F600 X36.626 Y29.750
G01 F600 X36.678 Y29.256
G01 F600 X36.831 Y28.784
G01 F600 X37.079 Y28.355
G01 F600 X37.412 Y27.986
G01 F600 X37.813 Y27.694
G01 F600 X37.827 Y27.688
G01 F600 X37.827 Y25.284
G01 F600 X32.096 Y19.564
G01 F600 X31.815 Y19.564
G01 F600 X31.452 Y19.487
G01 F600 X31.113 Y19.336
G01 F600 X30.813 Y19.118
G01 F600 X30.565 Y18.843
G01 F600 X30.379 Y18.521
G01 F600 X30.265 Y18.169
G01 F600 X30.226 Y17.800
G01 F600 X30.265 Y17.431
G01 F600 X30.367 Y17.117
G01 F600 X29.920 Y16.670
G01 F600 X23.738 Y16.670
G01 F600 X23.738 Y16.923
G01 F600 X22.342 Y16.923
G01 F600 X22.342 Y16.862
G01 F600 X22.299 Y16.893
G01 F600 X22.262 Y16.915
G01 F600 X22.214 Y16.938
G01 F600 X22.174 Y16.952
G01 F600 X22.122 Y16.965
G01 F600 X22.080 Y16.971
G01 F600 X22.042 Y16.973
G01 F600 X21.582 Y16.973
G01 F600 X21.939 Y17.330
G01 F600 X23.570 Y17.330
G01 F600 X23.708 Y17.359
G01 F600 X23.837 Y17.416
G01 F600 X23.947 Y17.497
G01 F600 X27.620 Y21.169
G01 F600 X27.705 Y21.264
G01 F600 X27.776 Y21.386
G01 F600 X27.819 Y21.520
G01 F600 X27.833 Y21.651
G01 F600 X27.833 Y22.296
G01 F600 X27.946 Y22.378
G01 F600 X28.110 Y22.560
G01 F600 X28.233 Y22.773
G01 F600 X28.308 Y23.006
G01 F600 X28.333 Y23.241
G01 F600 X28.333 Y27.349
G01 F600 X28.308 Y27.584
G01 F600 X28.233 Y27.818
G01 F600 X28.110 Y28.030
G01 F600 X27.955 Y28.202
G01 F600 X25.876 Y30.281
G01 F600 X25.876 Y30.923
G01 F600 X23.625 Y30.923
G01 F600 X23.625 Y30.064
G01 F600 X23.602 Y29.994
G01 F600 X23.576 Y29.750
G01 F600 X23.602 Y29.506
G01 F600 X23.625 Y29.436
G01 F600 X23.625 Y28.577
G01 F600 X24.266 Y28.577
G01 F600 X25.987 Y26.856
G01 F600 X25.987 Y23.241
G01 F600 X26.012 Y23.006
G01 F600 X26.088 Y22.773
G01 F600 X26.210 Y22.560
G01 F600 X26.375 Y22.378
G01 F600 X26.487 Y22.296
G01 F600 X26.487 Y21.938
G01 F600 X23.220 Y18.670
G01 F600 X21.588 Y18.670
G01 F600 X21.451 Y18.641
G01 F600 X21.322 Y18.584
G01 F600 X21.212 Y18.504
G01 F600 X20.085 Y17.377
G01 F600 X20.000 Y17.282
G01 F600 X19.929 Y17.160
G01 F600 X19.886 Y17.026
G01 F600 X19.872 Y16.899
G01 F600 X19.868 Y16.802
G01 F600 X19.860 Y16.793
G01 F600 X19.835 Y16.759
G01 F600 X19.807 Y16.713
G01 F600 X19.789 Y16.674
G01 F600 X19.771 Y16.624
G01 F600 X19.761 Y16.582
G01 F600 X19.754 Y16.529
G01 F600 X19.752 Y16.492
G01 F600 X19.752 Y15.507
G01 F600 X19.755 Y15.458
G01 F600 X19.762 Y15.415
G01 F600 X19.776 Y15.364
G01 F600 X19.790 Y15.324
G01 F600 X19.814 Y15.276
G01 F600 X19.836 Y15.239
G01 F600 X19.869 Y15.197
G01 F600 X19.896 Y15.167
G01 F600 X19.928 Y15.138
G01 F600 X19.971 Y15.107
G01 F600 X20.008 Y15.085
G01 F600 X20.056 Y15.062
G01 F600 X20.096 Y15.048
G01 F600 X20.148 Y15.035
G01 F600 X20.190 Y15.029
G01 F600 X20.228 Y15.027
G01 F600 X20.772 Y15.027
G01 F600 X20.812 Y15.029
G01 F600 X20.864 Y15.038
G01 F600 X20.906 Y15.049
G01 F600 X20.956 Y15.068
G01 F600 X20.995 Y15.086
G01 F600 X21.040 Y15.114
G01 F600 X21.072 Y15.139
G01 F600 X21.097 Y15.161
G01 F600 X21.097 Y14.726
G01 F600 X21.111 Y14.595
G01 F600 X21.154 Y14.461
G01 F600 X21.225 Y14.339
G01 F600 X21.310 Y14.244
G01 F600 X21.808 Y13.747
G01 F600 X21.918 Y13.666
G01 F600 X22.047 Y13.609
G01 F600 X22.185 Y13.580
G01 F600 X33.959 Y13.580
G01 F600 X34.097 Y13.609
G01 F600 X34.226 Y13.666
G01 F600 X34.336 Y13.747
G01 F600 X36.169 Y15.580
G01 F600 X36.735 Y15.580
G01 F600 X36.831 Y15.284
G01 F600 X37.079 Y14.855
G01 F600 X37.412 Y14.486
G01 F600 X37.813 Y14.194
G01 F600 X38.266 Y13.992
G01 F600 X38.752 Y13.889
G01 F600 X39.248 Y13.889
G01 F600 X39.734 Y13.992
G01 F600 X40.187 Y14.194
G01 F600 X40.589 Y14.486
G01 F600 X40.921 Y14.855
G01 F600 X41.169 Y15.284
G01 F600 X41.322 Y15.756
G01 F600 X41.374 Y16.250
G01 F600 X41.322 Y16.744
G01 F600 X41.169 Y17.216
G01 F600 X40.921 Y17.645
G01 F600 X40.589 Y18.014
G01 F600 X40.187 Y18.306
G01 F600 X39.734 Y18.508
G01 F600 X39.248 Y18.611
G01 F600 X38.752 Y18.611
G01 F600 X38.266 Y18.508
G01 F600 X37.813 Y18.306
G01 F600 X37.412 Y18.014
G01 F600 X37.079 Y17.645
G01 F600 X36.831 Y17.216
G01 F600 X36.735 Y16.920
G01 F600 X35.818 Y16.920
G01 F600 X35.681 Y16.891
G01 F600 X35.552 Y16.834
G01 F600 X35.442 Y16.754
G01 F600 X33.608 Y14.920
G01 F600 X22.536 Y14.920
G01 F600 X22.444 Y15.012
G01 F600 X22.445 Y15.077
G01 F600 X23.738 Y15.077
G01 F600 X23.738 Y15.330
G01 F600 X30.270 Y15.330
G01 F600 X30.408 Y15.359
G01 F600 X30.537 Y15.416
G01 F600 X30.647 Y15.497
G01 F600 X31.322 Y16.171
G01 F600 X31.452 Y16.113
G01 F600 X31.815 Y16.036
G01 F600 X32.185 Y16.036
G01 F600 X32.548 Y16.113
G01 F600 X32.887 Y16.264
G01 F600 X33.187 Y16.482
G01 F600 X33.435 Y16.757
G01 F600 X33.621 Y17.079
G01 F600 X33.735 Y17.431
G01 F600 X33.774 Y17.800
G01 F600 X33.763 Y17.906
G01 F600 X39.795 Y23.938
G01 F600 X39.950 Y24.110
G01 F600 X40.073 Y24.323
G01 F600 X40.148 Y24.556
G01 F600 X40.173 Y24.791
G01 F600 X40.173 Y27.688
G01 F600 X40.187 Y27.694
G01 F600 X40.589 Y27.986
G01 F600 X40.921 Y28.355
G01 F600 X41.169 Y28.784
G01 F600 X41.322 Y29.256
G01 F600 X41.374 Y29.750
G01 F600 X41.322 Y30.244
G01 F600 X41.169 Y30.716
G01 F600 X40.921 Y31.145
G01 F600 X40.589 Y31.514
G01 F600 X40.187 Y31.806
G01 F600 X39.734 Y32.008
G01 F600 X39.248 Y32.111
G01 F600 X38.752 Y32.111
G00 F3000 Z3.000
G00 F3000 X22.994 Y33.617
G00 F1500 Z0
G01 F600 Z-0.200
G01 F600 X22.713 Y33.558
G01 F600 X22.450 Y33.441
G01 F600 X22.225 Y33.278
G01 F600 X21.270 Y32.322
G01 F600 X21.098 Y32.131
G01 F600 X20.954 Y31.882
G01 F600 X20.865 Y31.608
G01 F600 X20.837 Y31.342
G01 F600 X20.837 Y30.464
G01 F600 X20.782 Y30.558
G01 F600 X20.590 Y30.772
G01 F600 X20.358 Y30.941
G01 F600 X20.094 Y31.058
G01 F600 X19.808 Y31.118
G01 F600 X19.569 Y31.117
G01 F600 X11.918 Y31.117
G01 F600 X11.833 Y31.264
G01 F600 X11.473 Y31.664
G01 F600 X11.038 Y31.980
G01 F600 X10.546 Y32.199
G01 F600 X10.019 Y32.311
G01 F600 X9.481 Y32.311
G01 F600 X8.954 Y32.199
G01 F600 X8.462 Y31.980
G01 F600 X8.027 Y31.664
G01 F600 X7.667 Y31.264
G01 F600 X7.398 Y30.797
G01 F600 X7.231 Y30.285
G01 F600 X7.175 Y29.750
G01 F600 X7.231 Y29.215
G01 F600 X7.398 Y28.703
G01 F600 X7.667 Y28.236
G01 F600 X8.027 Y27.836
G01 F600 X8.462 Y27.520
G01 F600 X8.954 Y27.301
G01 F600 X9.481 Y27.189
G01 F600 X10.019 Y27.189
G01 F600 X10.546 Y27.301
G01 F600 X10.867 Y27.444
G01 F600 X16.088 Y22.222
G01 F600 X16.312 Y22.059
G01 F600 X16.575 Y21.942
G01 F600 X16.856 Y21.883
G01 F600 X17.144 Y21.883
G01 F600 X17.425 Y21.942
G01 F600 X17.688 Y22.059
G01 F600 X17.920 Y22.228
G01 F600 X18.112 Y22.442
G01 F600 X18.256 Y22.691
G01 F600 X18.345 Y22.964
G01 F600 X18.375 Y23.250
G01 F600 X18.345 Y23.536
G01 F600 X18.256 Y23.809
G01 F600 X18.112 Y24.058
G01 F600 X17.940 Y24.250
G01 F600 X13.807 Y28.383
G01 F600 X19.571 Y28.382
G01 F600 X19.814 Y28.383
G01 F600 X20.095 Y28.442
G01 F600 X20.358 Y28.559
G01 F600 X20.590 Y28.728
G01 F600 X20.782 Y28.942
G01 F600 X20.837 Y29.036
G01 F600 X20.837 Y24.277
G01 F600 X14.178 Y17.617
G01 F600 X11.918 Y17.617
G01 F600 X11.833 Y17.764
G01 F600 X11.473 Y18.164
G01 F600 X11.038 Y18.480
G01 F600 X10.546 Y18.699
G01 F600 X10.019 Y18.811
G01 F600 X9.481 Y18.811
G01 F600 X8.954 Y18.699
G01 F600 X8.462 Y18.480
G01 F600 X8.027 Y18.164
G01 F600 X7.667 Y17.764
G01 F600 X7.398 Y17.297
G01 F600 X7.231 Y16.785
G01 F600 X7.175 Y16.250
G01 F600 X7.231 Y15.715
G01 F600 X7.398 Y15.203
G01 F600 X7.667 Y14.736
G01 F600 X8.027 Y14.336
G01 F600 X8.462 Y14.020
G01 F600 X8.954 Y13.801
G01 F600 X9.481 Y13.689
G01 F600 X10.019 Y13.689
G01 F600 X10.546 Y13.801
G01 F600 X11.038 Y14.020
G01 F600 X11.473 Y14.336
G01 F600 X11.833 Y14.736
G01 F600 X11.918 Y14.883
G01 F600 X14.894 Y14.883
G01 F600 X15.175 Y14.942
G01 F600 X15.438 Y15.059
G01 F600 X15.662 Y15.222
G01 F600 X23.150 Y22.710
G01 F600 X23.322 Y22.902
G01 F600 X23.466 Y23.151
G01 F600 X23.555 Y23.424
G01 F600 X23.583 Y23.690
G01 F600 X23.583 Y28.377
G01 F600 X24.183 Y28.377
G01 F600 X25.787 Y26.773
G01 F600 X25.787 Y23.230
G01 F600 X25.815 Y22.964
G01 F600 X25.904 Y22.691
G01 F600 X26.048 Y22.442
G01 F600 X26.240 Y22.228
G01 F600 X26.287 Y22.194
G01 F600 X26.287 Y22.021
G01 F600 X23.137 Y18.870
G01 F600 X21.567 Y18.870
G01 F600 X21.388 Y18.832
G01 F600 X21.221 Y18.758
G01 F600 X21.081 Y18.656
G01 F600 X19.940 Y17.515
G01 F600 X19.837 Y17.401
G01 F600 X19.746 Y17.242
G01 F600 X19.689 Y17.068
G01 F600 X19.673 Y16.915
G01 F600 X19.671 Y16.874
G01 F600 X19.668 Y16.870
G01 F600 X19.631 Y16.807
G01 F600 X19.604 Y16.750
G01 F600 X19.580 Y16.681
G01 F600 X19.564 Y16.620
G01 F600 X19.555 Y16.547
G01 F600 X19.552 Y16.497
G01 F600 X19.552 Y15.500
G01 F600 X19.556 Y15.437
G01 F600 X19.565 Y15.374
G01 F600 X19.585 Y15.304
G01 F600 X19.606 Y15.245
G01 F600 X19.638 Y15.180
G01 F600 X19.671 Y15.126
G01 F600 X19.716 Y15.068
G01 F600 X19.754 Y15.026
G01 F600 X19.801 Y14.983
G01 F600 X19.860 Y14.940
G01 F600 X19.914 Y14.908
G01 F600 X19.980 Y14.877
G01 F600 X20.039 Y14.856
G01 F600 X20.110 Y14.839
G01 F600 X20.170 Y14.830
G01 F600 X20.223 Y14.827
G01 F600 X20.777 Y14.827
G01 F600 X20.833 Y14.830
G01 F600 X20.897 Y14.841
G01 F600 X20.897 Y14.715
G01 F600 X20.914 Y14.553
G01 F600 X20.971 Y14.379
G01 F600 X21.062 Y14.221
G01 F600 X21.165 Y14.107
G01 F600 X21.677 Y13.594
G01 F600 X21.817 Y13.492
G01 F600 X21.985 Y13.418
G01 F600 X22.164 Y13.380
G01 F600 X33.980 Y13.380
G01 F600 X34.159 Y13.418
G01 F600 X34.326 Y13.492
G01 F600 X34.466 Y13.594
G01 F600 X36.252 Y15.380
G01 F600 X36.590 Y15.380
G01 F600 X36.648 Y15.203
G01 F600 X36.917 Y14.736
G01 F600 X37.277 Y14.336
G01 F600 X37.712 Y14.020
G01 F600 X38.204 Y13.801
G01 F600 X38.731 Y13.689
G01 F600 X39.269 Y13.689
G01 F600 X39.796 Y13.801
G01 F600 X40.288 Y14.020
G01 F600 X40.723 Y14.336
G01 F600 X41.083 Y14.736
G01 F600 X41.352 Y15.203
G01 F600 X41.519 Y15.715
G01 F600 X41.575 Y16.250
G01 F600 X41.519 Y16.785
G01 F600 X41.352 Y17.297
G01 F600 X41.083 Y17.764
G01 F600 X40.723 Y18.164
G01 F600 X40.288 Y18.480
G01 F600 X39.796 Y18.699
G01 F600 X39.269 Y18.811
G01 F600 X38.731 Y18.811
G01 F600 X38.204 Y18.699
G01 F600 X37.712 Y18.480
G01 F600 X37.277 Y18.164
G01 F600 X36.917 Y17.764
G01 F600 X36.648 Y17.297
G01 F600 X36.590 Y17.120
G01 F600 X35.797 Y17.120
G01 F600 X35.618 Y17.082
G01 F600 X35.451 Y17.008
G01 F600 X35.311 Y16.906
G01 F600 X33.525 Y15.120
G01 F600 X23.938 Y15.120
G01 F600 X23.938 Y15.130
G01 F600 X30.291 Y15.130
G01 F600 X30.470 Y15.168
G01 F600 X30.638 Y15.242
G01 F600 X30.778 Y15.344
G01 F600 X31.366 Y15.932
G01 F600 X31.390 Y15.922
G01 F600 X31.794 Y15.836
G01 F600 X32.206 Y15.836
G01 F600 X32.610 Y15.922
G01 F600 X32.988 Y16.090
G01 F600 X33.322 Y16.332
G01 F600 X33.598 Y16.639
G01 F600 X33.804 Y16.997
G01 F600 X33.932 Y17.389
G01 F600 X33.975 Y17.800
G01 F600 X33.972 Y17.832
G01 F600 X39.940 Y23.800
G01 F600 X40.112 Y23.992
G01 F600 X40.256 Y24.241
G01 F600 X40.345 Y24.514
G01 F600 X40.373 Y24.780
G01 F600 X40.373 Y27.582
G01 F600 X40.723 Y27.836
G01 F600 X41.083 Y28.236
G01 F600 X41.352 Y28.703
G01 F600 X41.519 Y29.215
G01 F600 X41.575 Y29.750
G01 F600 X41.519 Y30.285
G01 F600 X41.352 Y30.797
G01 F600 X41.083 Y31.264
G01 F600 X40.723 Y31.664
G01 F600 X40.288 Y31.980
G01 F600 X39.796 Y32.199
G01 F600 X39.269 Y32.311
G01 F600 X38.731 Y32.311
G01 F600 X38.204 Y32.199
G01 F600 X37.712 Y31.980
G01 F600 X37.277 Y31.664
G01 F600 X36.917 Y31.264
G01 F600 X36.648 Y30.797
G01 F600 X36.481 Y30.285
G01 F600 X36.425 Y29.750
G01 F600 X36.481 Y29.215
G01 F600 X36.648 Y28.703
G01 F600 X36.917 Y28.236
G01 F600 X37.277 Y27.836
G01 F600 X37.627 Y27.582
G01 F600 X37.627 Y25.367
G01 F600 X32.013 Y19.764
G01 F600 X31.794 Y19.764
G01 F600 X31.390 Y19.678
G01 F600 X31.013 Y19.511
G01 F600 X30.678 Y19.268
G01 F600 X30.402 Y18.961
G01 F600 X30.196 Y18.603
G01 F600 X30.068 Y18.211
G01 F600 X30.025 Y17.800
G01 F600 X30.068 Y17.389
G01 F600 X30.139 Y17.172
G01 F600 X29.837 Y16.870
G01 F600 X23.938 Y16.870
G01 F600 X23.938 Y17.123
G01 F600 X22.290 Y17.123
G01 F600 X22.290 Y17.123
G01 F600 X22.272 Y17.130
G01 F600 X23.591 Y17.130
G01 F600 X23.770 Y17.168
G01 F600 X23.938 Y17.242
G01 F600 X24.078 Y17.344
G01 F600 X27.765 Y21.032
G01 F600 X27.868 Y21.146
G01 F600 X27.959 Y21.304
G01 F600 X28.016 Y21.478
G01 F600 X28.033 Y21.640
G01 F600 X28.033 Y22.194
G01 F600 X28.080 Y22.228
G01 F600 X28.272 Y22.442
G01 F600 X28.416 Y22.691
G01 F600 X28.505 Y22.964
G01 F600 X28.533 Y23.230
G01 F600 X28.533 Y27.360
G01 F600 X28.505 Y27.626
G01 F600 X28.416 Y27.899
G01 F600 X28.272 Y28.148
G01 F600 X28.100 Y28.340
G01 F600 X26.076 Y30.364
G01 F600 X26.076 Y30.883
G01 F600 X26.078 Y30.883
G01 F600 X27.488 Y29.472
G01 F600 X27.712 Y29.309
G01 F600 X27.975 Y29.192
G01 F600 X28.256 Y29.133
G01 F600 X30.027 Y29.133
G01 F600 X30.027 Y28.527
G01 F600 X33.973 Y28.527
G01 F600 X33.973 Y32.473
G01 F600 X30.027 Y32.473
G01 F600 X30.027 Y31.868
G01 F600 X28.972 Y31.868
G01 F600 X27.562 Y33.278
G01 F600 X27.338 Y33.441
G01 F600 X27.075 Y33.558
G01 F600 X26.794 Y33.617
G01 F600 X22.994 Y33.617
G00 F3000 Z3.000
G00 F3000 X22.973 Y33.818
G00 F1500 Z0
G01 F600 Z-0.200
G01 F600 X22.651 Y33.749
G01 F600 X22.349 Y33.615
G01 F600 X22.095 Y33.430
G01 F600 X21.125 Y32.460
G01 F600 X20.935 Y32.249
G01 F600 X20.770 Y31.964
G01 F600 X20.668 Y31.650
G01 F600 X20.637 Y31.353
G01 F600 X20.637 Y30.985
G01 F600 X20.458 Y31.115
G01 F600 X20.156 Y31.249
G01 F600 X19.828 Y31.318
G01 F600 X19.568 Y31.318
G01 F600 X12.033 Y31.318
G01 F600 X11.996 Y31.382
G01 F600 X11.608 Y31.813
G01 F600 X11.138 Y32.154
G01 F600 X10.608 Y32.390
G01 F600 X10.040 Y32.511
G01 F600 X9.460 Y32.511
G01 F600 X8.892 Y32.390
G01 F600 X8.362 Y32.154
G01 F600 X7.892 Y31.813
G01 F600 X7.504 Y31.382
G01 F600 X7.214 Y30.879
G01 F600 X7.035 Y30.327
G01 F600 X6.974 Y29.750
G01 F600 X7.035 Y29.173
G01 F600 X7.214 Y28.621
G01 F600 X7.504 Y28.118
G01 F600 X7.892 Y27.687
G01 F600 X8.362 Y27.346
G01 F600 X8.892 Y27.110
G01 F600 X9.460 Y26.989
G01 F600 X10.040 Y26.989
G01 F600 X10.608 Y27.110
G01 F600 X10.822 Y27.205
G01 F600 X15.958 Y22.070
G01 F600 X16.212 Y21.885
G01 F600 X16.513 Y21.751
G01 F600 X16.835 Y21.683
G01 F600 X17.165 Y21.683
G01 F600 X17.487 Y21.751
G01 F600 X17.788 Y21.885
G01 F600 X18.055 Y22.079
G01 F600 X18.275 Y22.324
G01 F600 X18.440 Y22.609
G01 F600 X18.542 Y22.922
G01 F600 X18.576 Y23.250
G01 F600 X18.542 Y23.578
G01 F600 X18.440 Y23.891
G01 F600 X18.275 Y24.176
G01 F600 X18.085 Y24.388
G01 F600 X14.290 Y28.183
G01 F600 X19.571 Y28.182
G01 F600 X19.835 Y28.183
G01 F600 X20.157 Y28.251
G01 F600 X20.458 Y28.385
G01 F600 X20.637 Y28.515
G01 F600 X20.637 Y24.360
G01 F600 X14.095 Y17.818
G01 F600 X12.033 Y17.818
G01 F600 X11.996 Y17.882
G01 F600 X11.608 Y18.313
G01 F600 X11.138 Y18.654
G01 F600 X10.608 Y18.890
G01 F600 X10.040 Y19.011
G01 F600 X9.460 Y19.011
G01 F600 X8.892 Y18.890
G01 F600 X8.362 Y18.654
G01 F600 X7.892 Y18.313
G01 F600 X7.504 Y17.882
G01 F600 X7.214 Y17.379
G01 F600 X7.035 Y16.827
G01 F600 X6.974 Y16.250
G01 F600 X7.035 Y15.673
G01 F600 X7.214 Y15.121
G01 F600 X7.504 Y14.618
G01 F600 X7.892 Y14.187
G01 F600 X8.362 Y13.846
G01 F600 X8.892 Y13.610
G01 F600 X9.460 Y13.489
G01 F600 X10.040 Y13.489
G01 F600 X10.608 Y13.610
G01 F600 X11.138 Y13.846
G01 F600 X11.608 Y14.187
G01 F600 X11.996 Y14.618
G01 F600 X12.033 Y14.683
G01 F600 X14.915 Y14.683
G01 F600 X15.237 Y14.751
G01 F600 X15.538 Y14.885
G01 F600 X15.792 Y15.070
G01 F600 X23.295 Y22.572
G01 F600 X23.485 Y22.784
G01 F600 X23.650 Y23.069
G01 F600 X23.752 Y23.382
G01 F600 X23.783 Y23.680
G01 F600 X23.783 Y28.177
G01 F600 X24.101 Y28.177
G01 F600 X25.587 Y26.691
G01 F600 X25.587 Y23.220
G01 F600 X25.618 Y22.922
G01 F600 X25.720 Y22.609
G01 F600 X25.885 Y22.324
G01 F600 X26.085 Y22.101
G01 F600 X23.054 Y19.070
G01 F600 X21.546 Y19.070
G01 F600 X21.326 Y19.024
G01 F600 X21.121 Y18.932
G01 F600 X20.951 Y18.809
G01 F600 X19.794 Y17.652
G01 F600 X19.674 Y17.519
G01 F600 X19.562 Y17.324
G01 F600 X19.492 Y17.110
G01 F600 X19.474 Y16.935
G01 F600 X19.454 Y16.901
G01 F600 X19.418 Y16.826
G01 F600 X19.388 Y16.739
G01 F600 X19.368 Y16.658
G01 F600 X19.355 Y16.566
G01 F600 X19.352 Y16.501
G01 F600 X19.352 Y15.494
G01 F600 X19.357 Y15.416
G01 F600 X19.369 Y15.333
G01 F600 X19.394 Y15.244
G01 F600 X19.421 Y15.166
G01 F600 X19.463 Y15.083
G01 F600 X19.506 Y15.012
G01 F600 X19.563 Y14.940
G01 F600 X19.613 Y14.884
G01 F600 X19.675 Y14.828
G01 F600 X19.748 Y14.774
G01 F600 X19.820 Y14.731
G01 F600 X19.904 Y14.692
G01 F600 X19.982 Y14.664
G01 F600 X20.072 Y14.642
G01 F600 X20.151 Y14.631
G01 F600 X20.218 Y14.627
G01 F600 X20.705 Y14.627
G01 F600 X20.717 Y14.511
G01 F600 X20.787 Y14.297
G01 F600 X20.899 Y14.103
G01 F600 X21.019 Y13.969
G01 F600 X21.547 Y13.442
G01 F600 X21.717 Y13.318
G01 F600 X21.922 Y13.226
G01 F600 X22.143 Y13.180
G01 F600 X34.001 Y13.180
G01 F600 X34.221 Y13.226
G01 F600 X34.427 Y13.318
G01 F600 X34.597 Y13.442
G01 F600 X36.335 Y15.180
G01 F600 X36.445 Y15.180
G01 F600 X36.464 Y15.121
G01 F600 X36.754 Y14.618
G01 F600 X37.142 Y14.187
G01 F600 X37.612 Y13.846
G01 F600 X38.142 Y13.610
G01 F600 X38.710 Y13.489
G01 F600 X39.290 Y13.489
G01 F600 X39.858 Y13.610
G01 F600 X40.388 Y13.846
G01 F600 X40.858 Y14.187
G01 F600 X41.246 Y14.618
G01 F600 X41.536 Y15.121
G01 F600 X41.715 Y15.673
G01 F600 X41.776 Y16.250
G01 F600 X41.715 Y16.827
G01 F600 X41.536 Y17.379
G01 F600 X41.246 Y17.882
G01 F600 X40.858 Y18.313
G01 F600 X40.388 Y18.654
G01 F600 X39.858 Y18.890
G01 F600 X39.290 Y19.011
G01 F600 X38.710 Y19.011
G01 F600 X38.142 Y18.890
G01 F600 X37.612 Y18.654
G01 F600 X37.142 Y18.313
G01 F600 X36.754 Y17.882
G01 F600 X36.464 Y17.379
G01 F600 X36.445 Y17.320
G01 F600 X35.776 Y17.320
G01 F600 X35.556 Y17.274
G01 F600 X35.351 Y17.182
G01 F600 X35.181 Y17.059
G01 F600 X33.443 Y15.320
G01 F600 X31.037 Y15.320
G01 F600 X31.426 Y15.710
G01 F600 X31.773 Y15.636
G01 F600 X32.227 Y15.636
G01 F600 X32.672 Y15.730
G01 F600 X33.088 Y15.915
G01 F600 X33.456 Y16.183
G01 F600 X33.761 Y16.521
G01 F600 X33.988 Y16.915
G01 F600 X34.129 Y17.348
G01 F600 X34.171 Y17.748
G01 F600 X40.085 Y23.662
G01 F600 X40.275 Y23.874
G01 F600 X40.440 Y24.159
G01 F600 X40.542 Y24.472
G01 F600 X40.573 Y24.770
G01 F600 X40.573 Y27.480
G01 F600 X40.858 Y27.687
G01 F600 X41.246 Y28.118
G01 F600 X41.536 Y28.621
G01 F600 X41.715 Y29.173
G01 F600 X41.776 Y29.750
G01 F600 X41.715 Y30.327
G01 F600 X41.536 Y30.879
G01 F600 X41.246 Y31.382
G01 F600 X40.858 Y31.813
G01 F600 X40.388 Y32.154
G01 F600 X39.858 Y32.390
G01 F600 X39.290 Y32.511
G01 F600 X38.710 Y32.511
G01 F600 X38.142 Y32.390
G01 F600 X37.612 Y32.154
G01 F600 X37.142 Y31.813
G01 F600 X36.754 Y31.382
G01 F600 X36.464 Y30.879
G01 F600 X36.285 Y30.327
G01 F600 X36.224 Y29.750
G01 F600 X36.285 Y29.173
G01 F600 X36.464 Y28.621
G01 F600 X36.754 Y28.118
G01 F600 X37.142 Y27.687
G01 F600 X37.427 Y27.480
G01 F600 X37.427 Y25.450
G01 F600 X31.930 Y19.964
G01 F600 X31.773 Y19.964
G01 F600 X31.328 Y19.870
G01 F600 X30.912 Y19.685
G01 F600 X30.544 Y19.417
G01 F600 X30.239 Y19.079
G01 F600 X30.012 Y18.685
G01 F600 X29.871 Y18.252
G01 F600 X29.824 Y17.800
G01 F600 X29.871 Y17.348
G01 F600 X29.911 Y17.227
G01 F600 X29.754 Y17.070
G01 F600 X24.138 Y17.070
G01 F600 X24.138 Y17.141
G01 F600 X24.208 Y17.192
G01 F600 X27.911 Y20.894
G01 F600 X28.031 Y21.027
G01 F600 X28.143 Y21.222
G01 F600 X28.213 Y21.436
G01 F600 X28.233 Y21.630
G01 F600 X28.233 Y22.099
G01 F600 X28.435 Y22.324
G01 F600 X28.600 Y22.609
G01 F600 X28.702 Y22.922
G01 F600 X28.733 Y23.220
G01 F600 X28.733 Y27.370
G01 F600 X28.702 Y27.668
G01 F600 X28.600 Y27.981
G01 F600 X28.435 Y28.266
G01 F600 X28.245 Y28.478
G01 F600 X27.523 Y29.199
G01 F600 X27.612 Y29.135
G01 F600 X27.913 Y29.001
G01 F600 X28.235 Y28.933
G01 F600 X29.827 Y28.933
G01 F600 X29.827 Y28.327
G01 F600 X34.173 Y28.327
G01 F600 X34.173 Y32.673
G01 F600 X29.827 Y32.673
G01 F600 X29.827 Y32.068
G01 F600 X29.055 Y32.068
G01 F600 X27.692 Y33.430
G01 F600 X27.438 Y33.615
G01 F600 X27.137 Y33.749
G01 F600 X26.815 Y33.818
G01 F600 X22.973 Y33.818
G00 F3000 Z3.000
G00 F3000 Z3.000
G00 F3000 X0.000 Y0.000
M05
M30
%