( PCB drills )
( Generated by Rapid-PCB.com )
( Material Size)
( X= 50.000, Y= 50.000, Z= 1.550)
()
G00
G17
G21
G40
G49
G54
G80
G90
G94
G00 F3000 Z3.000
M03 S9000
G00 F3000 X23.040 Y16.000
G00 F1500 Z0
G01 F60 Z-1.700
G00 F3000 Z3.000
G00 F3000 X21.770 Y16.000
G00 F1500 Z0
G01 F60 Z-1.700
G00 F3000 Z3.000
G00 F3000 X20.500 Y16.000
G00 F1500 Z0
G01 F60 Z-1.700
G00 F3000 Z3.000
G00 F3000 X27.160 Y23.250
G00 F1500 Z0
G01 F60 Z-1.700
G00 F3000 Z3.000
G00 F3000 X17.000 Y23.250
G00 F1500 Z0
G01 F60 Z-1.700
G00 F3000 Z3.000
G00 F3000 X24.750 Y29.750
G00 F1500 Z0
G01 F60 Z-1.700
G00 F3000 Z3.000
G00 F3000 X22.210 Y29.750
G00 F1500 Z0
G01 F60 Z-1.700
G00 F3000 Z3.000
G00 F3000 X19.670 Y29.750
G00 F1500 Z0
G01 F60 Z-1.700
G00 F3000 Z3.000
G00 F3000 X32.000 Y30.500
G00 F1500 Z0
G01 F60 Z-1.700
G00 F3000 Z3.000
G00 F3000 X32.000 Y17.800
G00 F1500 Z0
G01 F60 Z-1.700
G00 F3000 Z3.000
G00 F3000 X9.750 Y29.750
G00 F1500 Z0
G01 F60 Z-1.700
G00 F3000 Z3.000
G00 F3000 X39.000 Y29.750
G00 F1500 Z0
G01 F60 Z-1.700
G00 F3000 Z3.000
G00 F3000 X39.000 Y16.250
G00 F1500 Z0
G01 F60 Z-1.700
G00 F3000 Z3.000
G00 F3000 X9.750 Y16.250
G00 F1500 Z0
G01 F60 Z-1.700
G00 F3000 Z3.000
G00 F3000 Z3.000
G00 F3000 X0.000 Y0.000
M05
M30
%